X:75
T:Hungary Waltz. JGi.075
O:Tealby,Lincolnshire
M:3/8
L:1/8
Q:3/8=60
S:Joshua Gibbons MS,1823,Tealby,Lincs.
R:waltz
Z:VMP/R.Greig, 2009
K:G
B/d/|gf A/c/|ed G/B/|dc A/c/|
ed B/d/|gf A/c/|ed G/A/|dc A/F/|G4:|
|:B/d/|c/d/>c/ Ac|ed B/d/|B/d/B Ac|
ed B/d/|gf A/c/|ed G/B/|dc A/F/|G4:|
|:d|dba|gBd|cAf|gBd|dba|gBd|cAf|g4:|
|:B|cAf|aBd|cAf|gBd|cba|gcd|cAf|g4:|

